X:8170
T:Johnnie Cope (cheat's version)
M:4/4
L:1/8
K:AMin
EG|A2A2 A2Bd|e2A2 A2
GE|G2G2 GABc|dedc B2
AG|c2c2 d3d |e2g2 B2
AG|E2g2 edcB|A4   A2||
AB|c2cc cGEG|cde2 g2
dc|B2AG d2G2|Bcde d2
cB|cBcd edea|gedc B2
AG|E2g2 edcB|A4   A2|]


